assets/symbols/icons/Frame 3.svg

<?xml version="1.0" encoding="UTF-8" standalone="no"?>
<svg
   width="24"
   height="24"
   viewBox="0 0 24 24"
   fill="none"
   version="1.1"
   id="svg1"
   xmlns="http://www.w3.org/2000/svg"
   xmlns:svg="http://www.w3.org/2000/svg">
  <defs
     id="defs1" />
  <path
     d="M 8.88571,4.88889 H 6.94286 C 6.42758,4.88889 5.93341,5.0879 5.56905,5.44213 5.20469,5.79637 5,6.27681 5,6.77778 V 18.1111 c 0,0.501 0.20469,0.9814 0.56905,1.3357 C 5.93341,19.801 6.42758,20 6.94286,20 h 9.71424 c 0.5153,0 1.0095,-0.199 1.3738,-0.5532 C 18.3953,19.0925 18.6,18.6121 18.6,18.1111 V 6.77778 C 18.6,6.27681 18.3953,5.79637 18.0309,5.44213 17.6666,5.0879 17.1724,4.88889 16.6571,4.88889 h -1.9428 m -5.82859,0 c 0,0.50096 0.2047,0.98141 0.56905,1.33565 0.36436,0.35423 0.85854,0.55324 1.37384,0.55324 h 1.9428 c 0.5153,0 1.0095,-0.19901 1.3738,-0.55324 0.3644,-0.35424 0.5691,-0.83469 0.5691,-1.33565 m -5.82859,0 c 0,-0.50097 0.2047,-0.98141 0.56905,-1.33565 C 9.81912,3.19901 10.3133,3 10.8286,3 h 1.9428 c 0.5153,0 1.0095,0.19901 1.3738,0.55324 0.3644,0.35424 0.5691,0.83468 0.5691,1.33565 M 11.8,11.5 h 2.9143 M 11.8,15.2778 h 2.9143 M 8.88571,11.5 h 0.00972 m -0.00972,3.7778 h 0.00972"
     stroke="#a3a3a3"
     stroke-width="1.5"
     stroke-linecap="round"
     stroke-linejoin="round"
     id="path1"
     style="fill:none" />
</svg>

<svg width="24" height="24" viewBox="0 0 24 24" fill="none" xmlns="http://www.w3.org/2000/svg">
<path d="M8.88571 4.88889H6.94286C6.42758 4.88889 5.93341 5.0879 5.56905 5.44213C5.20469 5.79637 5 6.27681 5 6.77778V18.1111C5 18.6121 5.20469 19.0925 5.56905 19.4468C5.93341 19.801 6.42758 20 6.94286 20H16.6571C17.1724 20 17.6666 19.801 18.0309 19.4468C18.3953 19.0925 18.6 18.6121 18.6 18.1111V6.77778C18.6 6.27681 18.3953 5.79637 18.0309 5.44213C17.6666 5.0879 17.1724 4.88889 16.6571 4.88889H14.7143M8.88571 4.88889C8.88571 5.38985 9.09041 5.8703 9.45476 6.22454C9.81912 6.57877 10.3133 6.77778 10.8286 6.77778H12.7714C13.2867 6.77778 13.7809 6.57877 14.1452 6.22454C14.5096 5.8703 14.7143 5.38985 14.7143 4.88889M8.88571 4.88889C8.88571 4.38792 9.09041 3.90748 9.45476 3.55324C9.81912 3.19901 10.3133 3 10.8286 3H12.7714C13.2867 3 13.7809 3.19901 14.1452 3.55324C14.5096 3.90748 14.7143 4.38792 14.7143 4.88889M11.8 11.5H14.7143M11.8 15.2778H14.7143M8.88571 11.5H8.89543M8.88571 15.2778H8.89543" stroke="#A3A3A3" stroke-width="1.5" stroke-linecap="round" stroke-linejoin="round"/>
</svg>
